src/assets/covenantIcon.svg

<svg width="24" height="24" viewBox="0 0 24 24" fill="none" xmlns="http://www.w3.org/2000/svg">
<rect width="24" height="24" rx="4" fill="url(#paint0_linear_751_4259)"/>
<path fill-rule="evenodd" clip-rule="evenodd" d="M11.9996 4L19.0001 8.0424V12.0848L11.9996 8.0424L8.49756 10.0636V6.0212L11.9996 4Z" fill="url(#paint1_linear_751_4259)"/>
<path fill-rule="evenodd" clip-rule="evenodd" d="M8.4985 6.02148L5 8.04268V12.0851L12.0005 16.1275L15.499 14.1063L8.4985 10.0639V6.02148Z" fill="url(#paint2_linear_751_4259)"/>
<path fill-rule="evenodd" clip-rule="evenodd" d="M8.49756 10.0634L11.9996 8.04224L19.0001 12.0846V16.127L15.4981 18.1482V14.1058L8.49756 10.0634Z" fill="url(#paint3_linear_751_4259)"/>
<path fill-rule="evenodd" clip-rule="evenodd" d="M12.0005 20.1695L15.499 18.1483V14.1059L12.0005 16.1271L5 12.0847V16.1271L12.0005 20.1695Z" fill="url(#paint4_linear_751_4259)"/>
<defs>
<linearGradient id="paint0_linear_751_4259" x1="24" y1="-5.23869e-06" x2="-0.598279" y2="0.629711" gradientUnits="userSpaceOnUse">
<stop stop-color="#AAF5D4"/>
<stop offset="1" stop-color="#7CE0D6"/>
</linearGradient>
<linearGradient id="paint1_linear_751_4259" x1="8.30442" y1="6.18279" x2="18.6721" y2="15.6284" gradientUnits="userSpaceOnUse">
<stop stop-color="#F8FEFD" stop-opacity="0.9"/>
<stop offset="1" stop-color="#F8FEFD" stop-opacity="0"/>
</linearGradient>
<linearGradient id="paint2_linear_751_4259" x1="3.34732" y1="4.00028" x2="14.143" y2="13.7899" gradientUnits="userSpaceOnUse">
<stop stop-color="#F8FEFD" stop-opacity="0"/>
<stop offset="1" stop-color="#F8FEFD" stop-opacity="0.9"/>
</linearGradient>
<linearGradient id="paint3_linear_751_4259" x1="10.799" y1="8.05359" x2="18.6429" y2="17.6427" gradientUnits="userSpaceOnUse">
<stop stop-color="#F8FEFD" stop-opacity="0.1"/>
<stop offset="1" stop-color="#F8FEFD"/>
</linearGradient>
<linearGradient id="paint4_linear_751_4259" x1="5" y1="12.4816" x2="16.6737" y2="20.4433" gradientUnits="userSpaceOnUse">
<stop stop-color="#F8FEFD"/>
<stop offset="1" stop-color="#F8FEFD" stop-opacity="0"/>
</linearGradient>
</defs>
</svg>

<svg width="24" height="24" fill="none" xmlns="http://www.w3.org/2000/svg"><rect width="24" height="24" rx="4" fill="url(#a)"/><path fill-rule="evenodd" clip-rule="evenodd" d="m12 4 7 4.042v4.043l-7-4.043-3.502 2.022V6.02L12 4z" fill="url(#b)"/><path fill-rule="evenodd" clip-rule="evenodd" d="M8.498 6.021 5 8.043v4.042l7 4.043 3.499-2.022-7-4.042V6.02z" fill="url(#c)"/><path fill-rule="evenodd" clip-rule="evenodd" d="M8.498 10.063 12 8.043l7 4.042v4.042l-3.502 2.021v-4.042l-7-4.043z" fill="url(#d)"/><path fill-rule="evenodd" clip-rule="evenodd" d="m12 20.17 3.499-2.022v-4.042l-3.498 2.021L5 12.085v4.042l7 4.043z" fill="url(#e)"/><defs><linearGradient id="a" x1="24" y1="0" x2="-.598" y2=".63" gradientUnits="userSpaceOnUse"><stop stop-color="#AAF5D4"/><stop offset="1" stop-color="#7CE0D6"/></linearGradient><linearGradient id="b" x1="8.304" y1="6.183" x2="18.672" y2="15.628" gradientUnits="userSpaceOnUse"><stop stop-color="#F8FEFD" stop-opacity=".9"/><stop offset="1" stop-color="#F8FEFD" stop-opacity="0"/></linearGradient><linearGradient id="c" x1="3.347" y1="4" x2="14.143" y2="13.79" gradientUnits="userSpaceOnUse"><stop stop-color="#F8FEFD" stop-opacity="0"/><stop offset="1" stop-color="#F8FEFD" stop-opacity=".9"/></linearGradient><linearGradient id="d" x1="10.799" y1="8.054" x2="18.643" y2="17.643" gradientUnits="userSpaceOnUse"><stop stop-color="#F8FEFD" stop-opacity=".1"/><stop offset="1" stop-color="#F8FEFD"/></linearGradient><linearGradient id="e" x1="5" y1="12.482" x2="16.674" y2="20.443" gradientUnits="userSpaceOnUse"><stop stop-color="#F8FEFD"/><stop offset="1" stop-color="#F8FEFD" stop-opacity="0"/></linearGradient></defs></svg>
